X:5
T:Reel 5
M:4/4
K:Amaj
L:1/8
 (3E,F,G, |A,2CA, EA,CA,|G,B,E,B, G,B,E,B,|A,2CA, EA,CE|FAGB AFEC|A,2CA, EA,CA,|G,E,B,E, CE,B,E,|A,2CA, EA,CE|FAGB A2A2|AECE EECE|FBBA GBEG|AECE FECE|FAGB A2AE|ABcG FEFE|DCB,C B,EFG|AGFG AECE|FAGB AFEC|
